X: 22143
T: Kylebrack Rambler, The
R: reel
M: 4/4
K: Dmixolydian
DA,~A,2 DA,=FA,|DA,~A,2 CA,G,A,|DA,~A,2 DA,DE|FDEF G2FG|
Adde dcAB|cGAc GECD|DCA,G, A,DED|1 FAGE D3E:|2 FAGE DEFG||
AFGA FDED|dedc AGdB|cBcG EGAB|cAdB cAGA|
dAfA dABA|^cABA EAcA|~G2EG CDEG|cAGE DEFG:|
ADED A,DED|dABA dcAB|cdBd cAGE|CcBd cAGA|
FDED A,DED|dABA dcAB|cdBd cAGE|1 CEGE DEFG:|2 CEGE D3E||

